X: 06010
T: BRUNSWICK HORNPIPE
C: Bob McQuillen 27 April'82
B: Bob's Note Book 6 #10
%R: hornpipe, reel
Z: 2021 John Chambers <jc:trillian.mit.edu>
M: C
L: 1/8
K: D
DE \
| FEDE FAde | fafd edBd | Adfd BAdf | edBd AFDE |
| FEDE FAde | fafd edBd | AdBd fdBd | AFEF D2 :|
|: ag \
| fded fdBA | f2df edBd | AdBd BdAd | fedB ABdf |
| a2ab afde | fafd B2BA | Bdfe dBAF | DFEF D2 :|
%%begintext align
%% I had such a
%% good time at the New England Folk Festival
%% last week-end. It was so great to hear
%% Kevin McElroy, now of Brunswick, Maine,
%% belt out those wonderful hornpipes on his banjo.
%%endtext
